X:1
T:Title
%%score ( 1 2 ) { 3 | 4 }
L:1/8
Q:1/4=85
M:6/8
K:Eb
V:1 treble nm="Grand Piano, Soprano"
V:2 treble 
V:3 bass nm="Choir Pad, Tell It Today"
V:4 bass 
V:1
 E/[EF]/[EG][EG] [EG][GB][FA] | [EG][EG][DF] [DF] [DF]2 | [DF]/[EG]/[FA][FA] [FA][Ac][GB] | %3
w: By~James~Henry~Fillmore,~Sr. * * * * * *|||
 [FA][FA][EG] [EG] [EG]2 | [EG]/[FA]/[GB][GB] [GB][Ge][Bd] | [Ac][Ac][GB] [GB] [GB]2 | %6
w: |||
 [GB][Ac][Ac] [Ac][GB][EG] | E[EG][DF] [DF] [DF]2 | .B3 z3 | z c2- c3- | c3 z3 | z d2- d2- d/ z/ | %12
w: ||||||
 [Ac]/[Ac]/[Ge][GB] [GB][GB][FA] | z3 z .c2 | [EA][EG][EB] [EG][DF][DA] | [DG] E2- E3- | E3 z3 |] %17
w: |||||
V:2
 x6 | x6 | x6 | x6 | x6 | x6 | x6 | x6 | D/-[DA]/[EG][EG] [EG][EG][FA] | [GB]AA A A2- | %10
 A[=Ac][Ac] [Ac][Ac][Ad] | [=Ae]BB B _A2 | x6 | [EG][Ac][Ac] [Ac]A-[AB] | x6 | x6 | x6 |] %17
V:3
 G,/A,/B,B, B,B,B, | B,B,B, B, B,2 | B,/B,/B,B, B,B,B, | B,B,B, B, B,2 | B,/B,/[K:treble]EE EB,C | %5
 DEE E E2 | EEE EE[K:bass]B, | G,B,B, B, B,2 | B,B,B, B,B,B, | EEE E E2- | EEE EED | CB,B, D F2 | %12
 B,/B,/B,E EEB, | B,[K:treble]EE EED | C[K:bass]B,G, B,B,F, | B, G,2- G,3- | G,3 z3 |] %17
V:4
 E,/E,/E,E, E,E,E, | E,B,,B,, B,, B,,2 | B,,/B,,/B,,B,, B,,B,,B,, | B,,E,E, E, E,2 | %4
 E,/E,/E,E, E,E,E, | E,E,E, E, E,2 | E,A,,A,, C,E,E, | E,B,,B,, B,, B,,2 | B,,E,E, E,E,E, | %9
 E,A,A, A, A,2- | A,F,F, F,F,F, | .F,3 B, B,2 | z E,E, E,E,E, | E,A,,A,, A,, A,,2 | %14
 A,,B,,B,, B,,B,,B,, | B,, E,2- E,3- | E,3 z3 |] %17

